X:16048
T:Strathconnon
Z:Jack Campin <http://www.purr.demon.co.uk/jack/> version 1.0 September 2001
C:Geo. S. McLennan
S:G.S.MacLennan, Highland Bagpipe Music book 1, pub R.G. Hardie, 1956 reprint
B:NLS Mus.D.s.33(6)
R:Strathspey
M:C
L:1/8
Q:1/4=112
K:Hp
   {gAGAG}A2 {gef}e>c  {g}e>f {ag}a2 |   e>f     {ag}a>e   {g}f<a      (3fed|
   {gAGAG}A2 {gef}e>c  {g}e>f {ag}a>e|{g}f<a         e>f {gef}e>c {GdGcG}B2:|
   {gAGAG}A2 {gef}e>A  {g}c<e  {A}e>c|{g}A>{d}c {gef}e>A   {d}c<e      (3fec|
[1 {gAGAG}A2 {gef}e>A  {d}c<e  {A}e>d|{g}ca          e>f {gef}e>c {GdGcG}B2:|
[2 {ag}a>e     {g}f<a {eg}e>a   (3fec|{g}A>{d}c   {g}e>f {gef}e>c {GdGcG}B2|]


